X: 10082
T: The WOOD CUTTERS
C:
%R: jig
B: Elias Howe "The Musician's Companion" Part 1 1842 p.8 #2
S: http://imslp.org/wiki/The_Musician's_Companion_(Howe,_Elias)
Z: 2015 John Chambers <jc:trillian.mit.edu>
M: 6/8
L: 1/8
K: D
% - - - - - - - - - - - - - - - - - - - - - - - - -
|:\
ddd dfa | ddd dfa | fff f2e | fff f2f/g/ |\
aaa aba | ggg gag | fff faf | eee e3 :|
|:\
a2g fBf | a2g fBf | daf daf | aaa a3 |\
dAd ece | fdf g3 | c'gf gfe | ddd d3 :|
% - - - - - - - - - - - - - - - - - - - - - - - - -


